X: 21555
T: Kilfenora Lass, The
R: jig
M: 6/8
K: Edorian
|:BEE FEE|BEE EFA|BEE FEE|ADD DFA|
BEE FEE|BEE EFA|~B2A F2E|1 FDD DFA:|2 FDD D2c||
|:dcd Bcd|~e2d cBA|dcd Bcd|ecA ABc|
dcd Bcd|~e2d cBA|B2A ~F2E|1 FDD D2c:|2 FDD DFA||

